bernoullicharts/1_3_x__bound.svg

<?xml version="1.0" encoding="utf-8" standalone="no"?>
<!DOCTYPE svg PUBLIC "-//W3C//DTD SVG 1.1//EN"
  "http://www.w3.org/Graphics/SVG/1.1/DTD/svg11.dtd">
<!-- Created with matplotlib (https://matplotlib.org/) -->
<svg height="345.6pt" version="1.1" viewBox="0 0 460.8 345.6" width="460.8pt" xmlns="http://www.w3.org/2000/svg" xmlns:xlink="http://www.w3.org/1999/xlink">
 <defs>
  <style type="text/css">
*{stroke-linecap:butt;stroke-linejoin:round;}
  </style>
 </defs>
 <g id="figure_1">
  <g id="patch_1">
   <path d="M 0 345.6 
L 460.8 345.6 
L 460.8 0 
L 0 0 
z
" style="fill:#ffffff;"/>
  </g>
  <g id="axes_1">
   <g id="patch_2">
    <path d="M 57.6 307.584 
L 414.72 307.584 
L 414.72 41.472 
L 57.6 41.472 
z
" style="fill:#ffffff;"/>
   </g>
   <g id="matplotlib.axis_1">
    <g id="xtick_1">
     <g id="line2d_1">
      <defs>
       <path d="M 0 0 
L 0 3.5 
" id="mf34e50e9be" style="stroke:#000000;stroke-width:0.8;"/>
      </defs>
      <g>
       <use style="stroke:#000000;stroke-width:0.8;" x="73.800255" xlink:href="#mf34e50e9be" y="307.584"/>
      </g>
     </g>
     <g id="text_1">
      <text style="font-family:DejaVu Sans;font-size:10px;font-style:normal;font-weight:normal;text-anchor:middle;" transform="rotate(-0, 73.800255, 322.182437)" x="73.800255" y="322.182437">0.0</text>
     </g>
    </g>
    <g id="xtick_2">
     <g id="line2d_2">
      <g>
       <use style="stroke:#000000;stroke-width:0.8;" x="138.744153" xlink:href="#mf34e50e9be" y="307.584"/>
      </g>
     </g>
     <g id="text_2">
      <text style="font-family:DejaVu Sans;font-size:10px;font-style:normal;font-weight:normal;text-anchor:middle;" transform="rotate(-0, 138.744153, 322.182437)" x="138.744153" y="322.182437">0.2</text>
     </g>
    </g>
    <g id="xtick_3">
     <g id="line2d_3">
      <g>
       <use style="stroke:#000000;stroke-width:0.8;" x="203.688051" xlink:href="#mf34e50e9be" y="307.584"/>
      </g>
     </g>
     <g id="text_3">
      <text style="font-family:DejaVu Sans;font-size:10px;font-style:normal;font-weight:normal;text-anchor:middle;" transform="rotate(-0, 203.688051, 322.182437)" x="203.688051" y="322.182437">0.4</text>
     </g>
    </g>
    <g id="xtick_4">
     <g id="line2d_4">
      <g>
       <use style="stroke:#000000;stroke-width:0.8;" x="268.631949" xlink:href="#mf34e50e9be" y="307.584"/>
      </g>
     </g>
     <g id="text_4">
      <text style="font-family:DejaVu Sans;font-size:10px;font-style:normal;font-weight:normal;text-anchor:middle;" transform="rotate(-0, 268.631949, 322.182437)" x="268.631949" y="322.182437">0.6</text>
     </g>
    </g>
    <g id="xtick_5">
     <g id="line2d_5">
      <g>
       <use style="stroke:#000000;stroke-width:0.8;" x="333.575847" xlink:href="#mf34e50e9be" y="307.584"/>
      </g>
     </g>
     <g id="text_5">
      <text style="font-family:DejaVu Sans;font-size:10px;font-style:normal;font-weight:normal;text-anchor:middle;" transform="rotate(-0, 333.575847, 322.182437)" x="333.575847" y="322.182437">0.8</text>
     </g>
    </g>
    <g id="xtick_6">
     <g id="line2d_6">
      <g>
       <use style="stroke:#000000;stroke-width:0.8;" x="398.519745" xlink:href="#mf34e50e9be" y="307.584"/>
      </g>
     </g>
     <g id="text_6">
      <text style="font-family:DejaVu Sans;font-size:10px;font-style:normal;font-weight:normal;text-anchor:middle;" transform="rotate(-0, 398.519745, 322.182437)" x="398.519745" y="322.182437">1.0</text>
     </g>
    </g>
    <g id="text_7">
     <text style="font-family:DejaVu Sans;font-size:10px;font-style:normal;font-weight:normal;text-anchor:middle;" transform="rotate(-0, 236.16, 335.860562)" x="236.16" y="335.860562">Input Coin's Heads Probability (λ)</text>
    </g>
   </g>
   <g id="matplotlib.axis_2">
    <g id="ytick_1">
     <g id="line2d_7">
      <defs>
       <path d="M 0 0 
L -3.5 0 
" id="me8f2877714" style="stroke:#000000;stroke-width:0.8;"/>
      </defs>
      <g>
       <use style="stroke:#000000;stroke-width:0.8;" x="57.6" xlink:href="#me8f2877714" y="295.489319"/>
      </g>
     </g>
     <g id="text_8">
      <text style="font-family:DejaVu Sans;font-size:10px;font-style:normal;font-weight:normal;text-anchor:end;" transform="rotate(-0, 50.6, 299.288538)" x="50.6" y="299.288538">0.00</text>
     </g>
    </g>
    <g id="ytick_2">
     <g id="line2d_8">
      <g>
       <use style="stroke:#000000;stroke-width:0.8;" x="57.6" xlink:href="#me8f2877714" y="263.824225"/>
      </g>
     </g>
     <g id="text_9">
      <text style="font-family:DejaVu Sans;font-size:10px;font-style:normal;font-weight:normal;text-anchor:end;" transform="rotate(-0, 50.6, 267.623444)" x="50.6" y="267.623444">0.05</text>
     </g>
    </g>
    <g id="ytick_3">
     <g id="line2d_9">
      <g>
       <use style="stroke:#000000;stroke-width:0.8;" x="57.6" xlink:href="#me8f2877714" y="232.159131"/>
      </g>
     </g>
     <g id="text_10">
      <text style="font-family:DejaVu Sans;font-size:10px;font-style:normal;font-weight:normal;text-anchor:end;" transform="rotate(-0, 50.6, 235.95835)" x="50.6" y="235.95835">0.10</text>
     </g>
    </g>
    <g id="ytick_4">
     <g id="line2d_10">
      <g>
       <use style="stroke:#000000;stroke-width:0.8;" x="57.6" xlink:href="#me8f2877714" y="200.494037"/>
      </g>
     </g>
     <g id="text_11">
      <text style="font-family:DejaVu Sans;font-size:10px;font-style:normal;font-weight:normal;text-anchor:end;" transform="rotate(-0, 50.6, 204.293256)" x="50.6" y="204.293256">0.15</text>
     </g>
    </g>
    <g id="ytick_5">
     <g id="line2d_11">
      <g>
       <use style="stroke:#000000;stroke-width:0.8;" x="57.6" xlink:href="#me8f2877714" y="168.828943"/>
      </g>
     </g>
     <g id="text_12">
      <text style="font-family:DejaVu Sans;font-size:10px;font-style:normal;font-weight:normal;text-anchor:end;" transform="rotate(-0, 50.6, 172.628161)" x="50.6" y="172.628161">0.20</text>
     </g>
    </g>
    <g id="ytick_6">
     <g id="line2d_12">
      <g>
       <use style="stroke:#000000;stroke-width:0.8;" x="57.6" xlink:href="#me8f2877714" y="137.163849"/>
      </g>
     </g>
     <g id="text_13">
      <text style="font-family:DejaVu Sans;font-size:10px;font-style:normal;font-weight:normal;text-anchor:end;" transform="rotate(-0, 50.6, 140.963067)" x="50.6" y="140.963067">0.25</text>
     </g>
    </g>
    <g id="ytick_7">
     <g id="line2d_13">
      <g>
       <use style="stroke:#000000;stroke-width:0.8;" x="57.6" xlink:href="#me8f2877714" y="105.498754"/>
      </g>
     </g>
     <g id="text_14">
      <text style="font-family:DejaVu Sans;font-size:10px;font-style:normal;font-weight:normal;text-anchor:end;" transform="rotate(-0, 50.6, 109.297973)" x="50.6" y="109.297973">0.30</text>
     </g>
    </g>
    <g id="ytick_8">
     <g id="line2d_14">
      <g>
       <use style="stroke:#000000;stroke-width:0.8;" x="57.6" xlink:href="#me8f2877714" y="73.83366"/>
      </g>
     </g>
     <g id="text_15">
      <text style="font-family:DejaVu Sans;font-size:10px;font-style:normal;font-weight:normal;text-anchor:end;" transform="rotate(-0, 50.6, 77.632879)" x="50.6" y="77.632879">0.35</text>
     </g>
    </g>
    <g id="ytick_9">
     <g id="line2d_15">
      <g>
       <use style="stroke:#000000;stroke-width:0.8;" x="57.6" xlink:href="#me8f2877714" y="42.168566"/>
      </g>
     </g>
     <g id="text_16">
      <text style="font-family:DejaVu Sans;font-size:10px;font-style:normal;font-weight:normal;text-anchor:end;" transform="rotate(-0, 50.6, 45.967785)" x="50.6" y="45.967785">0.40</text>
     </g>
    </g>
    <g id="text_17">
     <text style="font-family:DejaVu Sans;font-size:10px;font-style:normal;font-weight:normal;text-anchor:middle;" transform="rotate(-90, 22.254687, 174.528)" x="22.254687" y="174.528">Coin Flips Needed</text>
    </g>
   </g>
   <g id="line2d_16">
    <path clip-path="url(#pe39361088f)" d="M 73.832727 295.485802 
L 77.112066 295.138336 
L 80.391405 294.80597 
L 83.670744 294.488271 
L 86.950083 294.184818 
L 90.229421 293.895201 
L 93.50876 293.619025 
L 96.788099 293.355904 
L 100.067438 293.105463 
L 103.346777 292.867339 
L 106.626116 292.641179 
L 109.905455 292.426638 
L 113.184793 292.223384 
L 116.464132 292.031093 
L 119.743471 291.84945 
L 123.02281 291.678148 
L 126.302149 291.51689 
L 129.581488 291.365388 
L 132.860826 291.223359 
L 136.140165 291.090532 
L 139.419504 290.96664 
L 142.698843 290.851426 
L 145.978182 290.744638 
L 149.257521 290.646033 
L 152.53686 290.555373 
L 155.816198 290.472428 
L 159.095537 290.396973 
L 162.374876 290.328791 
L 165.654215 290.267669 
L 168.933554 290.2134 
L 172.212893 290.165785 
L 175.492231 290.124627 
L 178.77157 290.089738 
L 182.050909 290.060932 
L 185.330248 290.03803 
L 188.609587 290.020857 
L 191.888926 290.009243 
L 195.168264 290.003023 
L 198.447603 290.002035 
L 201.726942 290.006122 
L 205.006281 290.015134 
L 208.28562 290.028921 
L 211.564959 290.047339 
L 214.844298 290.070247 
L 218.123636 290.097509 
L 221.402975 290.128992 
L 224.682314 290.164566 
L 227.961653 290.204106 
L 231.240992 290.247489 
L 234.520331 290.294595 
L 237.799669 290.345309 
L 241.079008 290.399516 
L 244.358347 290.457108 
L 247.637686 290.517977 
L 250.917025 290.582018 
L 254.196364 290.649131 
L 257.475702 290.719216 
L 260.755041 290.792177 
L 264.03438 290.86792 
L 267.313719 290.946355 
L 270.593058 291.027392 
L 273.872397 291.110945 
L 277.151736 291.196929 
L 280.431074 291.285263 
L 283.710413 291.375868 
L 286.989752 291.468664 
L 290.269091 291.563578 
L 293.54843 291.660534 
L 296.827769 291.759462 
L 300.107107 291.860291 
L 303.386446 291.962953 
L 306.665785 292.067383 
L 309.945124 292.173516 
L 313.224463 292.281288 
L 316.503802 292.39064 
L 319.78314 292.501511 
L 323.062479 292.613844 
L 326.341818 292.727581 
L 329.621157 292.842669 
L 332.900496 292.959054 
L 336.179835 293.076683 
L 339.459174 293.195505 
L 342.738512 293.315473 
L 346.017851 293.436537 
L 349.29719 293.55865 
L 352.576529 293.681768 
L 355.855868 293.805845 
L 359.135207 293.930839 
L 362.414545 294.056707 
L 365.693884 294.183408 
L 368.973223 294.310904 
L 372.252562 294.439154 
L 375.531901 294.568121 
L 378.81124 294.697768 
L 382.090579 294.82806 
L 385.369917 294.958962 
L 388.649256 295.090439 
L 391.928595 295.222459 
L 395.207934 295.35499 
L 398.487273 295.488 
" style="fill:none;stroke:#1f77b4;stroke-linecap:square;stroke-width:1.5;"/>
   </g>
   <g id="line2d_17">
    <path clip-path="url(#pe39361088f)" d="M 73.832727 53.568 
L 77.112066 91.566113 
L 80.391405 97.899132 
L 83.670744 77.633472 
L 86.950083 105.498754 
L 90.229421 78.900075 
L 93.50876 75.100264 
L 96.788099 109.298566 
L 100.067438 118.164792 
L 103.346777 111.831773 
L 106.626116 75.100264 
L 109.905455 72.567056 
L 113.184793 109.298566 
L 116.464132 90.299509 
L 119.743471 71.300453 
L 123.02281 95.365924 
L 126.302149 83.96649 
L 129.581488 91.566113 
L 132.860826 67.500641 
L 136.140165 72.567056 
L 139.419504 111.831773 
L 142.698843 102.965547 
L 145.978182 119.431396 
L 149.257521 104.232151 
L 152.53686 133.364037 
L 155.816198 101.698943 
L 159.095537 110.565169 
L 162.374876 111.831773 
L 165.654215 115.631585 
L 168.933554 104.232151 
L 172.212893 104.232151 
L 175.492231 91.566113 
L 178.77157 132.097434 
L 182.050909 57.367811 
L 185.330248 130.83083 
L 188.609587 82.699887 
L 191.888926 111.831773 
L 195.168264 110.565169 
L 198.447603 106.765358 
L 201.726942 132.097434 
L 205.006281 120.698 
L 208.28562 106.765358 
L 211.564959 137.163849 
L 214.844298 104.232151 
L 218.123636 100.432339 
L 221.402975 139.697056 
L 224.682314 119.431396 
L 227.961653 130.83083 
L 231.240992 110.565169 
L 234.520331 125.764415 
L 237.799669 111.831773 
L 241.079008 133.364037 
L 244.358347 129.564226 
L 247.637686 118.164792 
L 250.917025 121.964603 
L 254.196364 110.565169 
L 257.475702 113.098377 
L 260.755041 95.365924 
L 264.03438 137.163849 
L 267.313719 97.899132 
L 270.593058 100.432339 
L 273.872397 132.097434 
L 277.151736 115.631585 
L 280.431074 115.631585 
L 283.710413 149.829886 
L 286.989752 118.164792 
L 290.269091 134.630641 
L 293.54843 135.897245 
L 296.827769 127.031018 
L 300.107107 119.431396 
L 303.386446 100.432339 
L 306.665785 125.764415 
L 309.945124 108.031962 
L 313.224463 119.431396 
L 316.503802 128.297622 
L 319.78314 133.364037 
L 323.062479 129.564226 
L 326.341818 124.497811 
L 329.621157 106.765358 
L 332.900496 135.897245 
L 336.179835 144.763471 
L 339.459174 106.765358 
L 342.738512 130.83083 
L 346.017851 121.964603 
L 349.29719 142.230264 
L 352.576529 125.764415 
L 355.855868 116.898188 
L 359.135207 125.764415 
L 362.414545 132.097434 
L 365.693884 151.09649 
L 368.973223 148.563282 
L 372.252562 138.430452 
L 375.531901 135.897245 
L 378.81124 129.564226 
L 382.090579 146.030075 
L 385.369917 147.296679 
L 388.649256 137.163849 
L 391.928595 166.295735 
L 395.207934 119.431396 
L 398.487273 152.363094 
" style="fill:none;stroke:#ff7f0e;stroke-linecap:square;stroke-width:1.5;"/>
   </g>
   <g id="patch_3">
    <path d="M 57.6 307.584 
L 57.6 41.472 
" style="fill:none;stroke:#000000;stroke-linecap:square;stroke-linejoin:miter;stroke-width:0.8;"/>
   </g>
   <g id="patch_4">
    <path d="M 414.72 307.584 
L 414.72 41.472 
" style="fill:none;stroke:#000000;stroke-linecap:square;stroke-linejoin:miter;stroke-width:0.8;"/>
   </g>
   <g id="patch_5">
    <path d="M 57.6 307.584 
L 414.72 307.584 
" style="fill:none;stroke:#000000;stroke-linecap:square;stroke-linejoin:miter;stroke-width:0.8;"/>
   </g>
   <g id="patch_6">
    <path d="M 57.6 41.472 
L 414.72 41.472 
" style="fill:none;stroke:#000000;stroke-linecap:square;stroke-linejoin:miter;stroke-width:0.8;"/>
   </g>
   <g id="text_18">
    <text style="font-family:DejaVu Sans;font-size:12px;font-style:normal;font-weight:normal;text-anchor:middle;" transform="rotate(-0, 236.16, 35.472)" x="236.16" y="35.472">Coin Flips for 1/(3+x)</text>
   </g>
   <g id="legend_1">
    <g id="patch_7">
     <path d="M 242.359062 78.82825 
L 407.72 78.82825 
Q 409.72 78.82825 409.72 76.82825 
L 409.72 48.472 
Q 409.72 46.472 407.72 46.472 
L 242.359062 46.472 
Q 240.359062 46.472 240.359062 48.472 
L 240.359062 76.82825 
Q 240.359062 78.82825 242.359062 78.82825 
z
" style="fill:#ffffff;opacity:0.8;stroke:#cccccc;stroke-linejoin:miter;"/>
    </g>
    <g id="line2d_18">
     <path d="M 244.359062 54.570437 
L 264.359062 54.570437 
" style="fill:none;stroke:#1f77b4;stroke-linecap:square;stroke-width:1.5;"/>
    </g>
    <g id="line2d_19"/>
    <g id="text_19">
     <text style="font-family:DejaVu Sans;font-size:10px;font-style:normal;font-weight:normal;text-anchor:start;" transform="rotate(-0, 272.359062, 58.070437)" x="272.359062" y="58.070437">Coin Flip Lower Bound</text>
    </g>
    <g id="line2d_20">
     <path d="M 244.359062 69.248562 
L 264.359062 69.248562 
" style="fill:none;stroke:#ff7f0e;stroke-linecap:square;stroke-width:1.5;"/>
    </g>
    <g id="line2d_21"/>
    <g id="text_20">
     <text style="font-family:DejaVu Sans;font-size:10px;font-style:normal;font-weight:normal;text-anchor:start;" transform="rotate(-0, 272.359062, 72.748562)" x="272.359062" y="72.748562">Avg. Coins Flipped 1/(3+x)</text>
    </g>
   </g>
  </g>
 </g>
 <defs>
  <clipPath id="pe39361088f">
   <rect height="266.112" width="357.12" x="57.6" y="41.472"/>
  </clipPath>
 </defs>
</svg>

<svg height="460.8" viewBox="0 0 460.8 345.6" width="614.4" xmlns="http://www.w3.org/2000/svg" xmlns:xlink="http://www.w3.org/1999/xlink"><defs><style>*{stroke-linecap:butt;stroke-linejoin:round}</style></defs><g id="figure_1"><path d="M0 345.6h460.8V0H0z" fill="#fff" id="patch_1"/><g id="axes_1"><path d="M57.6 307.584h357.12V41.472H57.6z" fill="#fff" id="patch_2"/><g id="matplotlib.axis_1"><g id="xtick_1"><g id="line2d_1"><defs><path d="M0 0v3.5" id="mf34e50e9be" stroke="#000" stroke-width=".8"/></defs><use x="73.8" xlink:href="#mf34e50e9be" y="307.584" stroke="#000" stroke-width=".8"/></g><text x="73.8" y="322.182" font-family="DejaVu Sans" font-size="10" font-weight="400" text-anchor="middle" id="text_1">0.0</text></g><g id="xtick_2"><use x="138.744" xlink:href="#mf34e50e9be" y="307.584" stroke="#000" stroke-width=".8" id="line2d_2"/><text x="138.744" y="322.182" font-family="DejaVu Sans" font-size="10" font-weight="400" text-anchor="middle" id="text_2">0.2</text></g><g id="xtick_3"><use x="203.688" xlink:href="#mf34e50e9be" y="307.584" stroke="#000" stroke-width=".8" id="line2d_3"/><text x="203.688" y="322.182" font-family="DejaVu Sans" font-size="10" font-weight="400" text-anchor="middle" id="text_3">0.4</text></g><g id="xtick_4"><use x="268.632" xlink:href="#mf34e50e9be" y="307.584" stroke="#000" stroke-width=".8" id="line2d_4"/><text x="268.632" y="322.182" font-family="DejaVu Sans" font-size="10" font-weight="400" text-anchor="middle" id="text_4">0.6</text></g><g id="xtick_5"><use x="333.576" xlink:href="#mf34e50e9be" y="307.584" stroke="#000" stroke-width=".8" id="line2d_5"/><text x="333.576" y="322.182" font-family="DejaVu Sans" font-size="10" font-weight="400" text-anchor="middle" id="text_5">0.8</text></g><g id="xtick_6"><use x="398.52" xlink:href="#mf34e50e9be" y="307.584" stroke="#000" stroke-width=".8" id="line2d_6"/><text x="398.52" y="322.182" font-family="DejaVu Sans" font-size="10" font-weight="400" text-anchor="middle" id="text_6">1.0</text></g><text x="236.16" y="335.861" font-family="DejaVu Sans" font-size="10" font-weight="400" text-anchor="middle" id="text_7">Input Coin&apos;s Heads Probability (λ)</text></g><g id="matplotlib.axis_2"><g id="ytick_1"><g id="line2d_7"><defs><path d="M0 0h-3.5" id="me8f2877714" stroke="#000" stroke-width=".8"/></defs><use x="57.6" xlink:href="#me8f2877714" y="295.489" stroke="#000" stroke-width=".8"/></g><text x="50.6" y="299.289" font-family="DejaVu Sans" font-size="10" font-weight="400" text-anchor="end" id="text_8">0.00</text></g><g id="ytick_2"><use x="57.6" xlink:href="#me8f2877714" y="263.824" stroke="#000" stroke-width=".8" id="line2d_8"/><text x="50.6" y="267.623" font-family="DejaVu Sans" font-size="10" font-weight="400" text-anchor="end" id="text_9">0.05</text></g><g id="ytick_3"><use x="57.6" xlink:href="#me8f2877714" y="232.159" stroke="#000" stroke-width=".8" id="line2d_9"/><text x="50.6" y="235.958" font-family="DejaVu Sans" font-size="10" font-weight="400" text-anchor="end" id="text_10">0.10</text></g><g id="ytick_4"><use x="57.6" xlink:href="#me8f2877714" y="200.494" stroke="#000" stroke-width=".8" id="line2d_10"/><text x="50.6" y="204.293" font-family="DejaVu Sans" font-size="10" font-weight="400" text-anchor="end" id="text_11">0.15</text></g><g id="ytick_5"><use x="57.6" xlink:href="#me8f2877714" y="168.829" stroke="#000" stroke-width=".8" id="line2d_11"/><text x="50.6" y="172.628" font-family="DejaVu Sans" font-size="10" font-weight="400" text-anchor="end" id="text_12">0.20</text></g><g id="ytick_6"><use x="57.6" xlink:href="#me8f2877714" y="137.164" stroke="#000" stroke-width=".8" id="line2d_12"/><text x="50.6" y="140.963" font-family="DejaVu Sans" font-size="10" font-weight="400" text-anchor="end" id="text_13">0.25</text></g><g id="ytick_7"><use x="57.6" xlink:href="#me8f2877714" y="105.499" stroke="#000" stroke-width=".8" id="line2d_13"/><text x="50.6" y="109.298" font-family="DejaVu Sans" font-size="10" font-weight="400" text-anchor="end" id="text_14">0.30</text></g><g id="ytick_8"><use x="57.6" xlink:href="#me8f2877714" y="73.834" stroke="#000" stroke-width=".8" id="line2d_14"/><text x="50.6" y="77.633" font-family="DejaVu Sans" font-size="10" font-weight="400" text-anchor="end" id="text_15">0.35</text></g><g id="ytick_9"><use x="57.6" xlink:href="#me8f2877714" y="42.169" stroke="#000" stroke-width=".8" id="line2d_15"/><text x="50.6" y="45.968" font-family="DejaVu Sans" font-size="10" font-weight="400" text-anchor="end" id="text_16">0.40</text></g><text transform="rotate(-90 22.255 174.528)" x="22.255" y="174.528" font-family="DejaVu Sans" font-size="10" font-weight="400" text-anchor="middle" id="text_17">Coin Flips Needed</text></g><path clip-path="url(#pe39361088f)" d="M73.833 295.486l3.28-.348 3.278-.332 3.28-.318 3.28-.303 3.278-.29 3.28-.276 3.28-.263 3.278-.25 3.28-.239 3.28-.226 3.278-.214 3.28-.204 3.28-.192 3.278-.182 3.28-.17 3.28-.162 3.278-.152 3.28-.142 3.28-.132 3.279-.124 3.279-.116 3.28-.106 3.279-.099 3.279-.09 3.28-.084 3.279-.075 3.279-.068 3.28-.061 3.279-.055 3.279-.047 3.28-.041 3.279-.035 3.279-.03 3.28-.022 3.279-.017 3.279-.012 3.28-.006 3.279-.001 3.279.004 3.28.01 3.279.013 3.279.018 3.28.023 3.279.028 3.279.031 3.28.036 3.279.04 3.279.042 3.28.048 3.279.05 3.279.055 3.28.057 3.279.061 3.279.064 3.28.067 3.279.07 3.279.073 3.28.076 3.279.078 3.28.081 3.278.084 3.28.086 3.28.088 3.278.09 3.28.094 3.28.095 3.278.097 3.28.098 3.28.101 3.278.103 3.28.104 3.28.107 3.278.107 3.28.11 3.28.11 3.278.113 3.28.114 3.28.115 3.278.116 3.28.118 3.28.119 3.279.12 3.279.12 3.28.123 3.279.123 3.279.124 3.28.125 3.279.126 3.279.126 3.28.128 3.279.128 3.279.13 3.28.129 3.279.13 3.279.131 3.28.131 3.279.132 3.279.133 3.28.133" fill="none" stroke="#1f77b4" stroke-linecap="square" stroke-width="1.5" id="line2d_16"/><path clip-path="url(#pe39361088f)" d="M73.833 53.568l3.28 37.998L80.39 97.9l3.28-20.266 3.28 27.866L90.228 78.9l3.28-3.8 3.28 34.199 3.278 8.866 3.28-6.333 3.28-36.732 3.278-2.533 3.28 36.732 3.28-19 3.278-18.999 3.28 24.066 3.28-11.4 3.278 7.6 3.28-24.065 3.28 5.066 3.279 39.265 3.279-8.866 3.28 16.465 3.279-15.199 3.279 29.132 3.28-31.665 3.279 8.866 3.279 1.267 3.28 3.8 3.279-11.4h3.279l3.28-12.666 3.279 40.531 3.279-74.73 3.28 73.464L188.61 82.7l3.279 29.132 3.28-1.267 3.279-3.8 3.279 25.332 3.28-11.399 3.279-13.933 3.279 30.399 3.28-32.932 3.279-3.8 3.279 39.265 3.28-20.266 3.279 11.4 3.279-20.266 3.28 15.2 3.279-13.933 3.279 21.532 3.28-3.8 3.279-11.4 3.279 3.8 3.28-11.399 3.279 2.533 3.279-17.732 3.28 41.798 3.279-39.265 3.28 2.533 3.278 31.665 3.28-16.465h3.28l3.278 34.198 3.28-31.665 3.28 16.466 3.278 1.266 3.28-8.866 3.28-7.6 3.278-18.999 3.28 25.332 3.28-17.732 3.278 11.4 3.28 8.866 3.28 5.066 3.278-3.8 3.28-5.066 3.28-17.733 3.278 29.132 3.28 8.866 3.28-37.998 3.279 24.066 3.279-8.866 3.28 20.265 3.279-16.466 3.279-8.866 3.28 8.866 3.279 6.333 3.279 19 3.28-2.534 3.279-10.133 3.279-2.533 3.28-6.333 3.279 16.466 3.279 1.267 3.28-10.133 3.279 29.132 3.279-46.865 3.28 32.932" fill="none" stroke="#ff7f0e" stroke-linecap="square" stroke-width="1.5" id="line2d_17"/><path d="M57.6 307.584V41.472" fill="none" stroke="#000" stroke-linecap="square" stroke-width=".8" id="patch_3"/><path d="M414.72 307.584V41.472" fill="none" stroke="#000" stroke-linecap="square" stroke-width=".8" id="patch_4"/><path d="M57.6 307.584h357.12" fill="none" stroke="#000" stroke-linecap="square" stroke-width=".8" id="patch_5"/><path d="M57.6 41.472h357.12" fill="none" stroke="#000" stroke-linecap="square" stroke-width=".8" id="patch_6"/><text x="236.16" y="35.472" font-family="DejaVu Sans" font-size="12" font-weight="400" text-anchor="middle" id="text_18">Coin Flips for 1/(3+x)</text><g id="legend_1"><path d="M242.36 78.828h165.36q2 0 2-2V48.472q0-2-2-2H242.36q-2 0-2 2v28.356q0 2 2 2z" fill="#fff" opacity=".8" stroke="#ccc" id="patch_7"/><path d="M244.36 54.57h20" fill="none" stroke="#1f77b4" stroke-linecap="square" stroke-width="1.5" id="line2d_18"/><text x="272.359" y="58.07" font-family="DejaVu Sans" font-size="10" font-weight="400" id="text_19">Coin Flip Lower Bound</text><path d="M244.36 69.249h20" fill="none" stroke="#ff7f0e" stroke-linecap="square" stroke-width="1.5" id="line2d_20"/><text x="272.359" y="72.749" font-family="DejaVu Sans" font-size="10" font-weight="400" id="text_20">Avg. Coins Flipped 1/(3+x)</text></g></g></g><defs><clipPath id="pe39361088f"><path d="M57.6 41.472h357.12v266.112H57.6z"/></clipPath></defs></svg>
